X:1
T:Dutch Warbler (Where, Oh Where)
M:3/8
L:1/8
K:Eb
 B| B2 G| EEG| FFD| B,2 B| c2 B| AGF| B3-| G z G| B2 G| EEG|F-F D|\
 B,2 B| c2 B|A-G F| E3-| E2 B| eGG| eGG| A f3/2 e/2| d2 z| dFF| dFF|\
 B g3/2 f/2| e z B| eGG| eGG| A f3/2 e/2| d2 z| d3/2 d/2 d| dcd| e3-|\
 e2||
